X:1
T:Sleep, Little Baby
T:Sleep, Little Baby
T:Harmonized by Professor Stanovsky 
T:Bohemian, translated by Herbert H. Wernecke
T:Public Domain Courtesy of the Cyber Hymnal™
C:Harmonized by Professor Stanovsky
Z:Public Domain
Z:Courtesy of the Cyber Hymnal™
%%score ( 1 2 ) ( 3 4 )
L:1/8
Q:1/4=113
M:3/4
K:A
V:1 treble 
V:2 treble 
V:3 bass 
V:4 bass 
V:1
 [CE]2 [DF]2 [DG]2 | [CA]4 [CA]2 | [EB]4 [EB]2 | [EAc]6 | [Fd]2 [Ec]2 [DB]2 | [CA]6 | %6
w: 1.~Sleep, lit- tle|Ba- by,|sleep, O|sleep,|Mo- ther dear|sang.|
w: 2.~Low- ly in|man- ger|cam- est|Thou,|Us to re-|deem.|
w: 3.~An- gels be|si- lent,|sleep, O|Child,|Peace may here|reign.|
 [CE]2 [DF]2 [DG]2 | [CA]4 [CA]2 | [EB]4 [EB]2 | [EAc]6 | [Fd]2 [Ec]2 [DB]2 | [CA]6 | %12
w: Ten- der- ly|rest, Child,|sleep in|peace,|Her soft voice|rang.|
w: Shep- herds re-|vered Thee,|wor- shipped|Thee,|Ho- li- est|scene.|
w: Bow be- fore|Him, ye|na- tions|all,|In glad re-|frain.|
 [Ac]2 [Ac]2 [GB]2 | [Ac]4 [GB]2 | [Ac]2 A4 | [GB]6 | [FA]2 [EG]2 [^DF]2 | E6 | [Ac]2 [Ac]2 [GB]2 | %19
w: Sleep, heav’n- ly|Child, ten-|der- ly|sleep,|Lord God art|Thou.|Heav- en and|
w: Heav- en- ly|star shone|on Thee|bright,|Ra- di- ant|Lord.|Peo- ples of|
w: God sent His|Son to|set us|free,|Peace to ac-|cord.|Let us then|
 [Ac]4 [GB]2 | [Ac]2 [EA]4 | [EB]6 | [Fd]2 [Ec]2 [DB]2 | [CA]6 |] %24
w: earth in|prais- es|join,|Praise to Thee|now.|
w: earth are|drawn to|Thee,|Hence ev- er-|more.|
w: praise and|hon- or|Him,|Je- sus our|Lord.|
V:2
 x6 | x6 | x6 | x6 | x6 | x6 | x6 | x6 | x6 | x6 | x6 | x6 | x6 | x6 | x2 A4 | x6 | x6 | E6 | x6 | %19
 x6 | x6 | x6 | x6 | x6 |] %24
V:3
 [A,,A,]2 [D,A,]2 [B,,E,]2 | E,4 [F,A,]2 | (A,2 G,F,) [E,G,]2 | [A,,A,]6 | %4
 [D,A,]2 [E,A,]2 [E,G,]2 | [A,,A,]6 | [A,,A,]2 [D,A,]2 [B,,E,]2 | E,4 [F,A,]2 | %8
 (A,2 G,F,) [E,G,]2 | [A,,A,]6 | [D,A,]2 [E,A,]2 [E,G,]2 | [A,,A,]6 | [A,,E]2 [C,E]2 [E,E]2 | %13
 E4 [D,E]2 | [C,E]2 ([C,E]2 [F,C]2) | [E,E]6 | [A,,C]2 [B,,B,]2 [B,,A,]2 | [E,G,]6 | %18
 [A,,E]2 [C,E]2 [E,E]2 | E4 [E,E]2 | [A,,E]2 A,4 | [E,G,]6 | [D,A,]2 [E,A,]2 [E,G,]2 | [A,,A,]6 |] %24
V:4
 x6 | (A,,2 C,2) x2 | E,4 x2 | x6 | x6 | x6 | x6 | (A,,2 C,2) x2 | E,4 x2 | x6 | x6 | x6 | x6 | %13
 (A,2 E,2) x2 | x6 | x6 | x6 | x6 | x6 | (A,2 C,2) x2 | x2 (C,2 F,2) | x6 | x6 | x6 |] %24

